X: 305845
M: 6/8
L: 1/8
K: D
(f/g/) |\
(af)d dcd | eBB B2c | dFF F2G | A>BA A2 (f/g/) |\
afd dcd | eBB B2d | A(ba) A(gf) | Ace "^D.C."d2 |]


